!!!COM: Palestrina, Giovanni Perluigi da
!!!OPR: Missa Salve regina
!!!OMD: Sanctus
!!!OTL: First Section
**kern	**kern	**kern	**kern	**kern
*Ibass	*Itenor	*Icalto	*Icalto	*Icant
!Bassus	!Tenor	!Altus 2	!Altus 1	!Cantus
*clefF4	*clefGv2	*clefG2	*clefG2	*clefG2
*k[b-]	*k[b-]	*k[b-]	*k[b-]	*k[b-]
*G:dor	*G:dor	*G:dor	*G:dor	*G:dor
*M4/2	*M4/2	*M4/2	*M4/2	*M4/2
=1	=1	=1	=1	=1
0r	0r	1g	0r	1r
.	.	2.b-	.	[1dd
.	.	4a	.	.
=2	=2	=2	=2	=2
0r	0r	2g	1r	1dd]
.	.	2f	.	.
.	.	1e	1g	1cc
=3	=3	=3	=3	=3
1G	0r	1d	2.b-	0dd
.	.	.	4a	.
1B-	.	1r	2g	.
.	.	.	2f	.
=4	=4	=4	=4	=4
1c	0r	2r	1e-	1g
.	.	1g	.	.
[1G	.	.	2d	[1dd
.	.	[2b-	[2g	.
=5	=5	=5	=5	=5
1G]	1d	2b-]	2g]	1dd]
.	.	2g	2.b-	.
1r	1f	1r	.	1cc
.	.	.	4a	.
.	.	.	[2a	.
=6	=6	=6	=6	=6
0r	1g	1r	4a]	1b-
.	.	.	4g	.
.	.	.	1g	.
.	1d	2r	.	1a
.	.	2a	2f#	.
=7	=7	=7	=7	=7
1G	1r	2.b-	1g	4g
.	.	.	.	4a
.	.	.	.	4b-
.	.	4a	.	4cc
2.B-	[1d	2g	1r	1dd
.	.	2f	.	.
4A	.	.	.	.
=8	=8	=8	=8	=8
2G	1d]	2b-	0r	1r
2F	.	4a	.	.
.	.	4f	.	.
1E	1c#	1g	.	1ee
=9	=9	=9	=9	=9
0D	0d	2f	1a	2.ff
.	.	2d	.	.
.	.	.	.	4ee
.	.	1r	2b-	2dd
.	.	.	[2a	2cc
=10	=10	=10	=10	=10
0r	1G	1r	4a]	1b-
.	.	.	4g	.
.	.	.	1g	.
.	[1d	2r	.	1a
.	.	[2a	4f	.
.	.	.	4e	.
=11	=11	=11	=11	=11
1D	1d]	2a]	0f	1r
.	.	2.b-	.	.
1F	1c	.	.	2r
.	.	4a	.	.
.	.	[2a	.	2a
=12	=12	=12	=12	=12
1G	1B-	4a]	0d	2.b-
.	.	4g	.	.
.	.	1g	.	.
.	.	.	.	4cc
1D	1A	.	.	1dd
.	.	2f#	.	.
=13	=13	=13	=13	=13
0G	1G	2g	2r	2b-
.	.	1b-	1g	1dd
.	1r	.	.	.
.	.	2b-	2d	2dd
=14	=14	=14	=14	=14
0r	0r	1a	1f	1cc
.	.	1g	2g	1b-
.	.	.	2G	.
=15	=15	=15	=15	=15
0r	2r	2f	1d	2a
.	1d	1a	.	2.f
.	.	.	1r	.
.	.	.	.	4g
.	2d	2f	.	4a
.	.	.	.	4b-
=16	=16	=16	=16	=16
0r	1c	2a	0r	4cc
.	.	.	.	4dd
.	.	2.g	.	2.ee
.	1B-	.	.	.
.	.	4f	.	4dd
.	.	4f	.	[2dd
.	.	8e	.	.
.	.	8d	.	.
=17	=17	=17	=17	=17
1r	1A	1e	1r	2dd]
.	.	.	.	2cc#
[1G	2r	1d	[1b-	[1dd
.	[2B-	.	.	.
=18	=18	=18	=18	=18
2G]	4B-]	2r	2b-]	1dd]
.	4c	.	.	.
2G	4d	2B-	2b-	.
.	4e	.	.	.
1F	4f	2c	1a	1r
.	4e	.	.	.
.	[2d	2d	.	.
=19	=19	=19	=19	=19
1E-	2d]	1G	1g	0r
.	2c	.	.	.
2D	2.d	2A	2.f	.
[2BB-	.	[2d	.	.
.	4e	.	4e	.
=20	=20	=20	=20	=20
4BB-]	1.f	2d]	4d	0r
4C	.	.	4e	.
4D	.	2d	4f	.
4E	.	.	4g	.
4F	.	1c	1a	.
4G	.	.	.	.
[2A	2e	.	.	.
=21	=21	=21	=21	=21
4A]	[0d	1B-	1r	0r
4G	.	.	.	.
1G	.	.	.	.
.	.	1A	2r	.
2F#	.	.	2a	.
=22	=22	=22	=22	=22
1G	0d]	2r	2b-	2r
.	.	2.B-	2g	1dd
1r	.	.	2.f	.
.	.	4c	.	.
.	.	4d	.	2dd
.	.	4e	4g	.
=23	=23	=23	=23	=23
1F	0r	4f	4a	1cc
.	.	4g	4g	.
.	.	2.a	4f	.
.	.	.	4e	.
1G	.	.	[1d	1b-
.	.	4g	.	.
.	.	[2g	.	.
=24	=24	=24	=24	=24
1D	1r	2g]	2d]	1a
.	.	2f#	2d	.
1G	[1d	1g	4B-	2.b-
.	.	.	4c	.
.	.	.	4d	.
.	.	.	4e	4cc
=25	=25	=25	=25	=25
0r	2d]	2.a	4f	4dd
.	.	.	4g	4ee
.	2d	.	1a	2.ff
.	.	4b-	.	.
.	1c	2cc	.	.
.	.	.	.	4ee
.	.	2c	[2g	[2ee
=26	=26	=26	=26	=26
0r	1B-	1d	4g]	4ee]
.	.	.	4f	4dd
.	.	.	4f	2.dd
.	.	.	8e	.
.	.	.	8d	.
.	2.A	2r	2.e	.
.	.	.	.	4cc
.	.	[2a	.	[2cc
.	4B-	.	4d	.
=27	=27	=27	=27	=27
0r	2c	2a]	2e	2cc]
.	2d	2a	2f	4b-
.	.	.	.	4a
.	1G	1g	2d	2b-
.	.	.	[2e	2b-
=28	=28	=28	=28	=28
0r	0A	1f	2e]	0a
.	.	.	1d	.
.	.	1e	.	.
.	.	.	2c#	.
=29	=29	=29	=29	=29
2r	0r	2.d	4d	1.ff
.	.	.	4e	.
1d	.	.	4f	.
.	.	4e	4g	.
.	.	4f	2a	.
.	.	4g	.	.
2d	.	4a	2f	2ff
.	.	4b-	.	.
=30	=30	=30	=30	=30
1c	0r	2cc	2g	1ee
.	.	1a	2c	.
1B-	.	.	1d	1dd
.	.	2g	.	.
=31	=31	=31	=31	=31
2A	2r	1a	2e	2cc
2.D	1d	.	2d	2.f
.	.	2r	2r	.
4E	.	.	.	4g
4F	2d	2f	[2a	4a
4G	.	.	.	4b-
=32	=32	=32	=32	=32
2A	1c	2e	2a]	2cc
2F	.	2f	2a	2a
1G	1B-	1d	1g	[1dd
=33	=33	=33	=33	=33
1.D	2A	2d	2f	1dd]
.	4F	1f	4d	.
.	4G	.	4e	.
.	4A	.	4f	1r
.	4B-	.	4g	.
2C	[2c	[2e-	[2a	.
=34	=34	=34	=34	=34
1E-	4c]	2e-]	2a]	1r
.	4B-	.	.	.
.	4A	2c	1g	.
.	4G	.	.	.
1D	2A	1d	.	2r
.	2A	.	2f#	[2dd
=35	=35	=35	=35	=35
1G	1G	1B-	[0g	2dd]
.	.	.	.	2dd
1C	2r	2e-	.	1cc
.	[2G	2e-	.	.
=36	=36	=36	=36	=36
0G	4G]	1d	0g]	2b-
.	4A	.	.	.
.	4B-	.	.	4g
.	4c	.	.	4a
.	2d	2G	.	4b-
.	.	.	.	4cc
.	2B-	2g	.	2dd
=37	=37	=37	=37	=37
0C	4e-	4g	[0g	1.cc
.	4d	4f	.	.
.	4c	4e-	.	.
.	4B-	4d	.	.
.	2c	2e-	.	.
.	2c	2e-	.	2cc
=38	=38	=38	=38	=38
0G	0B	0d	0g]	0dd
*-	*-	*-	*-	*-
!!!CDT: 1525/^1526/-1594/2/2
!!!OCY: Italia
!!!AGN: Mass (Paraphrase)
!!!AST: renaissance, vocal
!!!ASW: Antiphon
!!!PWK: Masses, Book 11
!!!RNB: Cadence finals: D
!!!YOR: Le Opere Complete, v. 28, p. 185
!!!YOO: Rome, Italy: Fratelli Scalera
!!!END: 1992//
!!!EED: John Miller
!!!YEC: Copyright 2000, John Miller
!!!YEN: United States of America
!!!YEM: Rights to all derivative electronic formats reserved.
!!!YEM: Refer to licensing agreement for further details.
!!!YEM: This file must be accompanied by the licensing agreement.
!!!YEM: A copy of the licensing agreement may be found at http://www.music-cog.ohio-state.edu/HumdrumDatabases/Palestrina/license.txt
!!!EMD: converted to Humdrum by Bret Aarden
